icons/general_surgery.svg

<svg width="48" height="48" viewBox="0 0 48 48" fill="none" xmlns="http://www.w3.org/2000/svg">
<path fill-rule="evenodd" clip-rule="evenodd" d="M40 8H8V40H40V8ZM8 6C6.89543 6 6 6.89543 6 8V40C6 41.1046 6.89543 42 8 42H40C41.1046 42 42 41.1046 42 40V8C42 6.89543 41.1046 6 40 6H8Z" fill="black"/>
<path fill-rule="evenodd" clip-rule="evenodd" d="M10 34H20V36H10V34Z" fill="black"/>
<path fill-rule="evenodd" clip-rule="evenodd" d="M28 34H32V36H28V34Z" fill="black"/>
<path fill-rule="evenodd" clip-rule="evenodd" d="M22 34H26V36H22V34Z" fill="black"/>
<path fill-rule="evenodd" clip-rule="evenodd" d="M34 34H38V36H34V34Z" fill="black"/>
<path fill-rule="evenodd" clip-rule="evenodd" d="M16.8284 28H21.5516C22.5979 28 23.6026 27.59 24.3501 26.858L28 23.2842V22.8284C28 21.7676 28.4214 20.7501 29.1716 20L30.8607 18.3109L28.2548 16.5736L16.8284 28ZM12 30L28 14L34 18L30.5858 21.4142C30.2107 21.7893 30 22.298 30 22.8284V23.2842C30 23.8219 29.7835 24.337 29.3993 24.7132L25.7494 28.2871C24.628 29.3851 23.1211 30 21.5516 30H12Z" fill="black"/>
<path fill-rule="evenodd" clip-rule="evenodd" d="M26.7071 21.2929C27.0976 21.6834 27.0976 22.3166 26.7071 22.7071L23.7071 25.7071C23.3166 26.0976 22.6834 26.0976 22.2929 25.7071C21.9024 25.3166 21.9024 24.6834 22.2929 24.2929L25.2929 21.2929C25.6834 20.9024 26.3166 20.9024 26.7071 21.2929Z" fill="black"/>
<path fill-rule="evenodd" clip-rule="evenodd" d="M36.7071 8.1075L29.1075 15.7071L27.6933 14.2929L35.2929 6.69328L36.7071 8.1075Z" fill="black"/>
<path fill-rule="evenodd" clip-rule="evenodd" d="M38.2071 12.3925C38.5976 12.783 38.5976 13.4162 38.2071 13.8067L32.7071 19.3067L31.2929 17.8925L36.7929 12.3925C37.1834 12.002 37.8166 12.002 38.2071 12.3925Z" fill="black"/>
</svg>

<svg
  xmlns="http://www.w3.org/2000/svg"
  width="24"
  height="24"
  viewBox="0 0 24 24"
  fill="none"
  stroke="currentColor"
  stroke-width="2"
  stroke-linecap="round"
  stroke-linejoin="round"
>
  <path
    fill-rule="evenodd"
    d="M40 8H8v32h32zM8 6a2 2 0 0 0-2 2v32a2 2 0 0 0 2 2h32a2 2 0 0 0 2-2V8a2 2 0 0 0-2-2z"
    clip-rule="evenodd"
  />
  <path fill-rule="evenodd" d="M10 34h10v2H10z" clip-rule="evenodd" />
  <path fill-rule="evenodd" d="M28 34h4v2h-4z" clip-rule="evenodd" />
  <path fill-rule="evenodd" d="M22 34h4v2h-4z" clip-rule="evenodd" />
  <path fill-rule="evenodd" d="M34 34h4v2h-4z" clip-rule="evenodd" />
  <path
    fill-rule="evenodd"
    d="M16.828 28h4.724a4 4 0 0 0 2.798-1.142L28 23.284v-.456A4 4 0 0 1 29.172 20l1.689-1.69-2.606-1.736zM12 30l16-16 6 4-3.414 3.414A2 2 0 0 0 30 22.828v.456a2 2 0 0 1-.6 1.43l-3.65 3.573A6 6 0 0 1 21.551 30z"
    clip-rule="evenodd"
  />
  <path
    fill-rule="evenodd"
    d="M26.707 21.293a1 1 0 0 1 0 1.414l-3 3a1 1 0 0 1-1.414-1.414l3-3a1 1 0 0 1 1.414 0"
    clip-rule="evenodd"
  />
  <path
    fill-rule="evenodd"
    d="m36.707 8.108-7.6 7.6-1.414-1.415 7.6-7.6z"
    clip-rule="evenodd"
  />
  <path
    fill-rule="evenodd"
    d="M38.207 12.393a1 1 0 0 1 0 1.414l-5.5 5.5-1.414-1.415 5.5-5.5a1 1 0 0 1 1.414 0"
    clip-rule="evenodd"
  />
</svg>
